src/main/resources/icons/RustIcons/struct.svg

<svg width="16" height="16" viewBox="0 0 16 16" fill="none" xmlns="http://www.w3.org/2000/svg">
<rect x="1" y="1" width="14" height="14" rx="3" fill="#B99BF8" fill-opacity="0.6"/>
<path fill-rule="evenodd" clip-rule="evenodd" d="M8.15333 11C7.26167 11 6.42 10.6917 5.72 10.0667L6.33667 9.33333C6.895 9.81667 7.46167 10.0917 8.17833 10.0917C8.81167 10.0917 9.21167 9.79167 9.21167 9.35833V9.34167C9.21167 8.925 8.97833 8.7 7.895 8.45C6.65333 8.15 5.95333 7.78333 5.95333 6.70833V6.69167C5.95333 5.69167 6.78667 5 7.945 5C8.795 5 9.47 5.25833 10.0617 5.73333L9.51167 6.50833C8.98667 6.11667 8.46167 5.90833 7.92833 5.90833C7.32833 5.90833 6.97833 6.21667 6.97833 6.6V6.61667C6.97833 7.06667 7.245 7.26667 8.37 7.53333C9.60333 7.83333 10.2367 8.275 10.2367 9.24167V9.25833C10.2367 10.35 9.37833 11 8.15333 11Z" fill="#231F20" fill-opacity="0.7"/>
</svg>

<svg width="16" height="16" viewBox="0 0 16 16" fill="none" xmlns="http://www.w3.org/2000/svg"><rect id="frame" width="16" height="16" fill="none"/><rect x="1" y="1" width="14" height="14" rx="3" fill="#B99BF8" fill-opacity=".6"/><path fill-rule="evenodd" clip-rule="evenodd" d="M8.153 11a3.593 3.593 0 0 1-2.433-.933l.617-.734c.558.484 1.125.759 1.841.759.634 0 1.034-.3 1.034-.734v-.016c0-.417-.234-.642-1.317-.892-1.242-.3-1.942-.667-1.942-1.742v-.016c0-1 .834-1.692 1.992-1.692.85 0 1.525.258 2.117.733l-.55.775c-.525-.391-1.05-.6-1.584-.6-.6 0-.95.309-.95.692v.017c0 .45.267.65 1.392.916 1.233.3 1.867.742 1.867 1.709v.016c0 1.092-.859 1.742-2.084 1.742z" fill="#231F20" fill-opacity=".7"/></svg>
